X: 1
T: the Huron Carol   [Em]
T: T'was in the Moon of Wintertime
C:
R: song
Z: 2019 John Chambers <jc:trillian.mit.edu>
M: 2/4
L: 1/8
K: Em
B, |\
"Em"EF GA |    GF ED | EE "Am"FD | "Em"E3 B, ||\
    EF GA | "C"GF ED | EE "Am"FD | "Em"E3 E ||\
 "G"BB FG | "Am"AG FF |
"Em"GF EE | "Am"FE "Bm"ED ||\
"Em"B,E E2 | "Bm"DC B,2 | "Em"E2 "Bm"DB, | "Em"E2 EF ||\
"C"GA "B"BB, | "Em"E4- | E2z |]
